symbolic/22x22/actions/gtk-convert.svg

<svg xmlns="http://www.w3.org/2000/svg" width="22" height="22" viewBox="0 0 22 22">
 <defs>
  <style id="current-color-scheme" type="text/css">
   .ColorScheme-Text { color:#323a41; } .ColorScheme-Highlight { color:#4285f4; } .ColorScheme-NeutralText { color:#ff9800; } .ColorScheme-PositiveText { color:#4caf50; } .ColorScheme-NegativeText { color:#f44336; }
  </style>
 </defs>
 <path style="fill:currentColor" class="ColorScheme-Text" d="M 6 0 L 6 2 C 2.6863 2 0 4.6863 0 8 C 0 10.622 1.6837437 12.846109 4.0273438 13.662109 L 4.0273438 11.458984 C 2.8222438 10.769984 2 9.4877 2 8 C 2 5.7909 3.7909 4 6 4 L 6 6 L 10 3 L 6 0 z M 11 2.3476562 L 11 4.5546875 C 12.191 5.2475875 13 6.5232 13 8 C 13 10.209 11.209 12 9 12 L 9 10 L 5 13 L 9 16 L 9 14 C 12.314 14 15 11.314 15 8 C 15 5.3884 13.329 3.1718563 11 2.3476562 z" transform="translate(3 3)"/>
</svg>

<svg xmlns="http://www.w3.org/2000/svg" width="22" height="22"><defs><style id="current-color-scheme" type="text/css"></style></defs><path style="fill:currentColor;color:#323a41" d="M6 0v2a5.997 5.997 0 0 0-1.973 11.662V11.46C2.822 10.77 2 9.488 2 8a4 4 0 0 1 4-4v2l4-3-4-3zm5 2.348v2.207c1.191.693 2 1.968 2 3.445a4 4 0 0 1-4 4v-2l-4 3 4 3v-2a5.998 5.998 0 0 0 2-11.652z" transform="translate(3 3)"/></svg>
